img/4-5homens.svg

<svg fill="none" height="73" viewBox="0 0 28 73" width="28" xmlns="http://www.w3.org/2000/svg"><g fill="#fff"><path d="m27.2944 43.2028-1.9974-17.6152c-.1636-1.9647-1.0432-3.8009-2.4718-5.1596-1.4285-1.3587-3.3064-2.1453-5.2769-2.2102h-7.73136c-1.9686.0654-3.84439.8525-5.27011 2.2116-1.42572 1.359-2.30177 3.195-2.4613 5.1582l-2.0490812 17.6152c-.08578.7183-.0197475 1.4465.1938222 2.1377.213569.6911.569913 1.3297 1.045959 1.8744.3931.4479.87076.8139 1.40558 1.0769.53483.2629 1.1163.4178 1.71109.4556l1.72192 22.6604c.022.3822.18949.7415.46808 1.004.2786.2626.64715.4086 1.02998.408h12.05342c.3834-.0032.7518-.1499 1.0323-.4113s.4528-.6185.483-1.0007l1.7219-22.6604c.5952-.036 1.1773-.19 1.7124-.4531.535-.2631 1.0124-.63 1.4043-1.0794.4821-.5419.8448-1.1791 1.0643-1.8704s.2911-1.421.2099-2.1417zm-3.4438 1.9974c-.1413.1581-.3136.2855-.5061.3744-.1925.0888-.4012.1372-.6132.1422h-1.1537c-.3834.0031-.7517.1498-1.0322.4112-.2806.2614-.4529.6185-.4831 1.0008l-1.7219 22.6604h-9.31555l-1.72191-22.6604c-.02622-.3837-.19737-.7431-.47875-1.0053s-.65194-.4076-1.03654-.4067h-1.08481c-.21234-.0029-.42171-.0503-.61452-.1393-.19282-.089-.36478-.2176-.50472-.3773-.2021-.2342-.35133-.5093-.4375-.8065-.08617-.2971-.10727-.6094-.06186-.9154l2.01464-17.5463c.07803-1.2225.60114-2.374 1.47045-3.237.86932-.8629 2.02463-1.3776 3.24761-1.4467h7.74866c1.2229.0691 2.3782.5838 3.2476 1.4467.8693.863 1.3924 2.0145 1.4704 3.237l2.0147 17.6152c.0354.2951.0093.5943-.0767.8788-.0859.2845-.2298.5481-.4227.7742z"/><path d="m13.6913 15.1873c1.5019 0 2.97-.4453 4.2188-1.2798 1.2488-.8344 2.2221-2.0203 2.7968-3.4079.5748-1.38754.7252-2.91437.4322-4.38739-.293-1.47303-1.0163-2.82609-2.0783-3.88808s-2.415-1.785214-3.888-2.078217c-1.4731-.293002-2.9999-.1426228-4.3875.432123-1.38751.574744-2.57348 1.548044-3.40788 2.796814s-1.27976 2.71692-1.27976 4.21881c.00454 2.01256.80605 3.94144 2.22915 5.36454s3.35189 2.2246 5.36449 2.2291zm0-12.05341c.9069.00023 1.7931.27067 2.5455.77678.7525.50612 1.3371 1.22496 1.6792 2.06479s.4263 1.76256.2417 2.65041-.6296 1.70053-1.2781 2.33443c-.6486.6338-1.4713 1.0601-2.3631 1.2243-.8919.1642-1.8124.059-2.6442-.3023-.8318-.3612-1.537-.9621-2.02578-1.726-.48875-.76387-.73882-1.65603-.71829-2.56264.00456-1.20722.48732-2.36344 1.34257-3.21546.8552-.85203 2.0133-1.33041 3.2205-1.3304z"/></g></svg>

<svg width="28" height="73" viewBox="0 0 28 73" fill="none" xmlns="http://www.w3.org/2000/svg">
<path d="M27.2944 43.2028L25.297 25.5876C25.1334 23.6229 24.2538 21.7867 22.8252 20.428C21.3967 19.0693 19.5188 18.2827 17.5483 18.2178H9.81694C7.84834 18.2832 5.97255 19.0703 4.54683 20.4294C3.12111 21.7884 2.24506 23.6244 2.08553 25.5876L0.0364488 43.2028C-0.0493312 43.9211 0.0167013 44.6493 0.230271 45.3405C0.44384 46.0316 0.800184 46.6702 1.27623 47.2149C1.66933 47.6628 2.14699 48.0288 2.68181 48.2918C3.21664 48.5547 3.79811 48.7096 4.3929 48.7474L6.11482 71.4078C6.13682 71.79 6.30431 72.1493 6.5829 72.4118C6.8615 72.6744 7.23005 72.8204 7.61288 72.8198H19.6663C20.0497 72.8166 20.4181 72.6699 20.6986 72.4085C20.9791 72.1471 21.1514 71.79 21.1816 71.4078L22.9035 48.7474C23.4987 48.7114 24.0808 48.5574 24.6159 48.2943C25.1509 48.0312 25.6283 47.6643 26.0202 47.2149C26.5023 46.673 26.865 46.0358 27.0845 45.3445C27.304 44.6532 27.3756 43.9235 27.2944 43.2028ZM23.8506 45.2002C23.7093 45.3583 23.537 45.4857 23.3445 45.5746C23.152 45.6634 22.9433 45.7118 22.7313 45.7168H21.5776C21.1942 45.7199 20.8259 45.8666 20.5454 46.128C20.2648 46.3894 20.0925 46.7465 20.0623 47.1288L18.3404 69.7892H9.02485L7.30294 47.1288C7.27672 46.7451 7.10557 46.3857 6.82419 46.1235C6.54281 45.8613 6.17225 45.7159 5.78765 45.7168H4.70284C4.4905 45.7139 4.28113 45.6665 4.08832 45.5775C3.8955 45.4885 3.72354 45.3599 3.5836 45.2002C3.3815 44.966 3.23227 44.6909 3.1461 44.3937C3.05993 44.0966 3.03883 43.7843 3.08424 43.4783L5.09888 25.932C5.17691 24.7095 5.70002 23.558 6.56933 22.695C7.43865 21.8321 8.59396 21.3174 9.81694 21.2483H17.5656C18.7885 21.3174 19.9438 21.8321 20.8132 22.695C21.6825 23.558 22.2056 24.7095 22.2836 25.932L24.2983 43.5472C24.3337 43.8423 24.3076 44.1415 24.2216 44.426C24.1357 44.7105 23.9918 44.9741 23.7989 45.2002H23.8506Z" fill="white"/>
<path d="M13.6913 15.1873C15.1932 15.1873 16.6613 14.742 17.9101 13.9075C19.1589 13.0731 20.1322 11.8872 20.7069 10.4996C21.2817 9.11206 21.4321 7.58523 21.1391 6.11221C20.8461 4.63918 20.1228 3.28612 19.0608 2.22413C17.9988 1.16214 16.6458 0.438916 15.1728 0.145913C13.6997 -0.147089 12.1729 0.0032902 10.7853 0.578036C9.39779 1.15278 8.21182 2.12608 7.37742 3.37485C6.54302 4.62362 6.09766 6.09177 6.09766 7.59366C6.1022 9.60622 6.90371 11.5351 8.32681 12.9582C9.74991 14.3813 11.6787 15.1828 13.6913 15.1873ZM13.6913 3.13389C14.5982 3.13412 15.4844 3.40456 16.2368 3.91067C16.9893 4.41679 17.5739 5.13563 17.916 5.97546C18.2581 6.81529 18.3423 7.73802 18.1577 8.62587C17.9731 9.51372 17.5281 10.3264 16.8796 10.9603C16.231 11.5941 15.4083 12.0204 14.5165 12.1846C13.6246 12.3488 12.7041 12.2436 11.8723 11.8823C11.0405 11.5211 10.3353 10.9202 9.84652 10.1563C9.35777 9.39243 9.1077 8.50027 9.12823 7.59366C9.13279 6.38644 9.61555 5.23022 10.4708 4.3782C11.326 3.52617 12.4841 3.04779 13.6913 3.0478V3.13389Z" fill="white"/>
</svg>
